X: 11359
T: Earl Of Mansfield's, The
R: march
M: 
K: Amajor
M:2/4
|:c/B/|A>B AE|A/B/c/d/ ed/c/|B>c BE|G/A/B/c/ dc/B/|
A>B AE|A/B/c/d/ ed/c/|dB GE|A3:|
|:e/d/|c>d cE|A/B/c/d/ ed/c/|B>c BE|G/A/B/c/ dc/B/|
c>d cE|A/B/c/d/ ed/c/|dB GE|A2 A:|
|:e/d/|cA Ae/d/|cA AB/c/|dB GB|
[1 GE Ee/d/|cA Ae/d/|cA AB/c/|dB GB|A3:|
[2 GE Ec/B/|A>B AE|ABcd e2 dc|dB GE|A3||

